static/img/home-offerings-multicloud.svg

<svg height="100" viewBox="0 0 120 100" width="120" xmlns="http://www.w3.org/2000/svg" xmlns:xlink="http://www.w3.org/1999/xlink"><linearGradient id="a" x1="100%" x2="0%" y1="50%" y2="50%"><stop offset="0" stop-color="#e77e2a"/><stop offset="1" stop-color="#e05528"/></linearGradient><g fill="url(#a)" transform=""><path d="m84.5736585 30.4824561c.645-1.6760651 1.0068293-3.5087719 1.0068293-5.4197995 0-8.302005-6.7646341-15.0375939-15.102439-15.0375939-3.0991464 0-5.9937805.9398496-8.385 2.5375939-4.3576829-7.51879695-12.4909756-12.5626566-21.8198781-12.5626566-13.9068292 0-25.1707317 11.2155388-25.1707317 25.0626566 0 .4229324.0157317.8458647.0314634 1.268797-8.80975606 3.0858396-15.1339024 11.4505013-15.1339024 21.287594 0 12.4530075 10.1469512 22.556391 22.6536585 22.556391h57.892683c11.122317 0 20.1365855-8.9755639 20.1365855-20.0501253 0-9.6961153-6.9219514-17.7944862-16.1092685-19.6428572z" transform="translate(0 29.824561)"/><path d="m41.9487805 15.1572582c.3199219-.8334156.4993902-1.7447204.4993902-2.6949699 0-4.12813299-3.3552782-7.47737298-7.4908536-7.47737298-1.5371856 0-2.9729326.46733581-4.1589844 1.26180669-2.1614234-3.73868649-6.1955602-6.24672201-10.8227229-6.24672201-6.8978278 0-12.48475614 5.57687402-12.48475614 12.4622883 0 .2103011.00780297.4206022.01560594.6309034-4.36966463 1.5344192-7.5064596 5.6937079-7.5064596 10.5851561 0 6.1921995 5.0329173 11.2160595 11.2362805 11.2160595h28.714939c5.5167016 0 9.9878049-4.463057 9.9878049-9.9698307 0-4.8213478-3.4333079-8.8482247-7.9902439-9.7673184z" transform="translate(62.634146)"/><path d="m21.0731707 7.62061404c.1607143-.4190163.2508711-.87719299.2508711-1.35494988 0-2.07550125-1.6855401-3.7593985-3.7630662-3.7593985-.7722125 0-1.4934669.23496241-2.0892857.6343985-1.0858014-1.87969925-3.1123693-3.14066416-5.4368467-3.14066416-3.46515679 0-6.271777 2.80388471-6.271777 6.26566416 0 .10573308.00391986.21146617.00783972.31719925-2.19512195.7714599-3.77090592 2.86262531-3.77090592 5.32189849 0 3.1132519 2.5283101 5.6390977 5.6445993 5.6390977h14.4250871c2.7713415 0 5.0174216-2.2438909 5.0174216-5.0125313 0-2.4240288-1.7247387-4.44862153-4.0139373-4.91071426z" transform="translate(94.829268 40.935673)"/></g></svg>

<?xml version="1.0" encoding="UTF-8"?>
<svg width="120px" height="100px" viewBox="0 0 120 100" version="1.1" xmlns="http://www.w3.org/2000/svg" xmlns:xlink="http://www.w3.org/1999/xlink">
    <!-- Generator: Sketch 50.2 (55047) - http://www.bohemiancoding.com/sketch -->
    <title>Group 5</title>
    <desc>Created with Sketch.</desc>
    <defs>
        <linearGradient x1="100%" y1="50%" x2="-2.22044605e-14%" y2="50%" id="linearGradient-1">
            <stop stop-color="#E77E2A" offset="0%"></stop>
            <stop stop-color="#E05528" offset="100%"></stop>
        </linearGradient>
    </defs>
    <g id="Page-1" stroke="none" stroke-width="1" fill="none" fill-rule="evenodd">
        <g id="homepage" transform="translate(-987.000000, -1517.000000)" fill="url(#linearGradient-1)" fill-rule="nonzero">
            <g id="Group-2" transform="translate(346.000000, 1139.000000)">
                <g id="Group-5" transform="translate(641.000000, 378.000000)">
                    <g id="cloud" transform="translate(0.000000, 29.824561)">
                        <path d="M84.5736585,30.4824561 C85.2186585,28.806391 85.5804878,26.9736842 85.5804878,25.0626566 C85.5804878,16.7606516 78.8158537,10.0250627 70.4780488,10.0250627 C67.3789024,10.0250627 64.4842683,10.9649123 62.0930488,12.5626566 C57.7353659,5.04385965 49.6020732,0 40.2731707,0 C26.3663415,0 15.102439,11.2155388 15.102439,25.0626566 C15.102439,25.485589 15.1181707,25.9085213 15.1339024,26.3314536 C6.32414634,29.4172932 0,37.7819549 0,47.6190476 C0,60.0720551 10.1469512,70.1754386 22.6536585,70.1754386 L80.5463415,70.1754386 C91.6686585,70.1754386 100.682927,61.1998747 100.682927,50.1253133 C100.682927,40.429198 93.7609756,32.3308271 84.5736585,30.4824561 Z" id="Shape"></path>
                    </g>
                    <g id="cloud-copy" transform="translate(62.634146, 0.000000)">
                        <path d="M41.9487805,15.1572582 C42.2687024,14.3238426 42.4481707,13.4125378 42.4481707,12.4622883 C42.4481707,8.33415531 39.0928925,4.98491532 34.9573171,4.98491532 C33.4201315,4.98491532 31.9843845,5.45225113 30.7983327,6.24672201 C28.6369093,2.50803552 24.6027725,0 19.9756098,0 C13.077782,0 7.49085366,5.57687402 7.49085366,12.4622883 C7.49085366,12.6725894 7.49865663,12.8828905 7.5064596,13.0931917 C3.13679497,14.6276109 0,18.7868996 0,23.6783478 C0,29.8705473 5.0329173,34.8944073 11.2362805,34.8944073 L39.9512195,34.8944073 C45.4679211,34.8944073 49.9390244,30.4313503 49.9390244,24.9245766 C49.9390244,20.1032288 46.5057165,16.0763519 41.9487805,15.1572582 Z" id="Shape"></path>
                    </g>
                    <g id="cloud-copy-2" transform="translate(94.829268, 40.935673)">
                        <path d="M21.0731707,7.62061404 C21.233885,7.20159774 21.3240418,6.74342105 21.3240418,6.26566416 C21.3240418,4.19016291 19.6385017,2.50626566 17.5609756,2.50626566 C16.7887631,2.50626566 16.0675087,2.74122807 15.4716899,3.14066416 C14.3858885,1.26096491 12.3593206,0 10.0348432,0 C6.56968641,0 3.7630662,2.80388471 3.7630662,6.26566416 C3.7630662,6.37139724 3.76698606,6.47713033 3.77090592,6.58286341 C1.57578397,7.35432331 0,9.44548872 0,11.9047619 C0,15.0180138 2.5283101,17.5438596 5.6445993,17.5438596 L20.0696864,17.5438596 C22.8410279,17.5438596 25.087108,15.2999687 25.087108,12.5313283 C25.087108,10.1072995 23.3623693,8.08270677 21.0731707,7.62061404 Z" id="Shape"></path>
                    </g>
                </g>
            </g>
        </g>
    </g>
</svg>
